source/img/svg/inline-logo-fb.svg

<svg width="13" height="20" viewBox="0 0 13 20" xmlns="http://www.w3.org/2000/svg">
<path d="M5.12403 1.75681C6.08751 0.81207 7.39201 0.283203 8.75 0.283203H11.5C11.8038 0.283203 12.05 0.529447 12.05 0.833203V4.42855C12.05 4.7323 11.8038 4.97855 11.5 4.97855H8.75C8.64931 4.97855 8.55486 5.01787 8.48689 5.08452C8.41929 5.15081 8.38334 5.23839 8.38334 5.32738V7.47389H11.5C11.6698 7.47389 11.8301 7.55233 11.9343 7.68643C12.0385 7.82052 12.0749 7.99522 12.033 8.15977L11.1163 11.7551C11.0542 11.9987 10.8348 12.1692 10.5833 12.1692H8.38334V18.8099C8.38334 19.1137 8.13709 19.3599 7.83334 19.3599H4.16667C3.86291 19.3599 3.61667 19.1137 3.61667 18.8099V12.1692H1.41667C1.11291 12.1692 0.866669 11.923 0.866669 11.6192V8.02389C0.866669 7.72013 1.11291 7.47389 1.41667 7.47389H3.61667V5.32738C3.61667 3.98606 4.16018 2.70191 5.12403 1.75681ZM8.75 1.3832C7.67685 1.3832 6.64977 1.80132 5.89417 2.54223C5.13893 3.28277 4.71667 4.28485 4.71667 5.32738V8.02389C4.71667 8.32765 4.47043 8.57389 4.16667 8.57389H1.96667V11.0692H4.16667C4.47043 11.0692 4.71667 11.3155 4.71667 11.6192V18.2599H7.28334V11.6192C7.28334 11.3155 7.52958 11.0692 7.83334 11.0692H10.156L10.7922 8.57389H7.83334C7.52958 8.57389 7.28334 8.32765 7.28334 8.02389V5.32738C7.28334 4.9396 7.44054 4.56994 7.71675 4.2991C7.9926 4.02862 8.36447 3.87855 8.75 3.87855H10.95V1.3832H8.75Z"/>
</svg>

<svg width="13" height="20" viewBox="0 0 13 20" xmlns="http://www.w3.org/2000/svg">
  <path d="M5.12 1.76A5.18 5.18 0 018.75.28h2.75c.3 0 .55.25.55.55v3.6c0 .3-.25.55-.55.55H8.75c-.1 0-.2.04-.26.1a.34.34 0 00-.1.25v2.14h3.11a.55.55 0 01.53.69l-.91 3.6a.55.55 0 01-.54.4h-2.2v6.65c0 .3-.24.55-.55.55H4.17a.55.55 0 01-.55-.55v-6.64h-2.2a.55.55 0 01-.55-.55v-3.6c0-.3.24-.55.55-.55h2.2V5.33a5 5 0 011.5-3.57zm3.63-.38c-1.07 0-2.1.42-2.86 1.16a3.9 3.9 0 00-1.17 2.79v2.7c0 .3-.25.54-.55.54h-2.2v2.5h2.2c.3 0 .55.25.55.55v6.64h2.56v-6.64c0-.3.25-.55.55-.55h2.33l.63-2.5H7.83a.55.55 0 01-.55-.55v-2.7a1.48 1.48 0 011.47-1.45h2.2V1.39h-2.2z"/>
</svg>
